X: 13724
T: Forde's
R: polka
M: 2/4
K: Dmixolydian
|:AD FA|d^c AB|c>B cG|EF GA/B/|
AD FA|d^c AB|c>B cG|ED D2:|
|:fg/f/ ed|^cA A2|fg/f/ ef|ag ed|
fg/f/ ed|^cA AB|c>B cG|ED D2:|

